X:360
T:El Valse (MG 62)
R:Valse
C:Tradicional
S:Msica Tradicional Asturiana, (C) Tello & Tito. Asturies, 2001.
S:http://pagina.de/MusTradAst <telloytito@asturies.org>
A:Asturies
Z:Mtodu de Gaita 62
M:3/8
L:1/8
Q:3/8=100
E:Comp.
K:C
|CDE|F2 E|~EFD|E3|C~DC|~DC/D/E|D E/F/E/D/|C3|
CDE|F E2|~EFD|E3|C~DC|~DC/D/E|D E/F/E/D/|C3-|: C GG|EC/D/E|FED|C3 :|
|: CDE|F E2|~EFD|E3|C~DC|~DC/D/E|D E/F/E/D/|C3- :|: C GG|EC/D/E|FED|C3 :|
|: GAB|c2 B|BcB|B3|G~AG|~A G/A/ B|A B/c/B/A/|G3 :|
|CDE|F2 E|EFD|E3|C~DC|~D C/D/ E|D E/F/E/D/|C3|
CDE|F E2|EFD|E3|C~DC|~DC/D/E|D E/F/E/D/|C3|
